X:1
T:The New Name
T:The New Name
T:Jane E. Hall
T:Jane E. Hall, 1878
T:Public Domain Courtesy of the Cyber Hymnal™
T:Public Domain Courtesy of the Cyber Hymnal™
C:Jane E. Hall
Z:Public Domain
Z:Courtesy of the Cyber Hymnal™
%%score ( 1 2 ) 3
L:1/8
Q:1/4=108
M:4/4
K:Bb
V:1 treble 
V:2 treble 
V:3 bass 
V:1
 [DF][EG][B,D][CE] [DF]2 [FB]2 | [FB]2 [FA]2 [FA]4 | [FA]2 [Fc]2 [EG]2 [EA]2 | %3
w: 1.~We shall have a new name|in that land,|In that land, that|
w: 2.~We’ll re- ceive it in a|pure white stone,|And no one will|
w: 3.~Don’t you won- der what that|name will be,|Sweet- er far than|
 [EG][DF][DF][B,D] [DF]4 | [DF][EG][B,D][CE] [DF]2 [FB]2 | [Gc]2 [EG]2 [EG]4 | %6
w: sun- ny, sun- ny land,|When we meet that bright an-|gel- ic band,|
w: know the name there- in,|On- ly un- to him who|hath ’tis known,|
w: aught on earth can be,|We will be quite sa- tis-|fied when we|
 [EB]2 [EA]2 [Fd]2 [Ec]2 | [DB]4 z2 [FA]2 | [FA]4 F2 [Fc]2 | [Fc]4 [FA]4 | %10
w: In that sun- ny|land. A|new name, a|new name,|
w: When we’re free from|sin. A|white stone, a|white stone,|
w: Shall that new name|know. I|won- der, I|won- der,|
 [=EG]2 [Bd]2 [Ac]2 [GB]2 | [FA]6 [Ac]2 | [Ac]4 [FA]2 [Ac]2 | [Bd]4 [GB]4 | %14
w: We’ll re- ceive up|there; A|new name, a|new name,|
w: We’ll re- ceive up|there; A|white stone, a|white stone,|
w: What that name will|be, I|won- der, I|won- der,|
 [FA]2 [Ac]2 [GB]2 [=EG]2 | F6 z2 ||"^Refrain" [DF][EG][B,D][CE] [DF]2 [FB]2 | [FB]2 [FA]2 [FA]4 | %18
w: All who en- ter|there.|||
w: All who en- ter|there.|We shall have a new name|in that land,|
w: What He’ll give to|me.|||
 [FA]2 [Fc]2 [EG]2 [EA]2 | [EG][DF][DF][B,D] [DF]4 | [DF][EG][B,D][CE] [DF]2 [FB]2 | %21
w: |||
w: In that land, that|sun- ny, sun- ny land,|When we meet that bright an-|
w: |||
 [Gc]2 [EG]2 [EG]4 | [EB]2 [EA]2 [Fd]2 [Ec]2 | [DB]6 z2 |] %24
w: |||
w: gel- ic band,|In that sun- ny|land.|
w: |||
V:2
 x8 | x8 | x8 | x8 | x8 | x8 | x8 | x8 | x4 F2 x2 | x8 | x8 | x8 | x8 | x8 | x8 | F6 x2 || x8 | %17
 x8 | x8 | x8 | x8 | x8 | x8 | x8 |] %24
V:3
 [B,,B,][B,,B,][B,,F,][B,,F,] [B,,B,]2 [B,,D]2 | [F,C]2 [F,C]2 [F,C]4 | %2
 [F,C]2 [F,A,]2 [F,C]2 [F,C]2 | [B,,B,][B,,B,][B,,B,][B,,F,] [B,,B,]4 | %4
 [B,,B,][B,,B,][B,,F,][B,,F,] [B,,B,]2 [B,,D]2 | [E,E]2 [E,C]2 [E,C]4 | %6
 [F,B,]2 [F,C]2 [F,B,]2 [F,A,]2 | [B,,B,]4 z2 [F,C]2 | [F,C]4 [F,A,]2 [F,A,]2 | [F,A,]4 [F,C]4 | %10
 [C,C]2 [C,C]2 [C,C]2 [C,C]2 | [F,C]6 [F,F]2 | [F,F]4 [F,C]2 [F,F]2 | [B,,F]4 [B,,D]4 | %14
 [C,C]2 [C,C]2 [C,C]2 [C,B,]2 | [F,A,]6 z2 || [B,,B,][B,,B,][B,,F,][B,,F,] [B,,B,]2 [B,,D]2 | %17
 [F,C]2 [F,C]2 [F,C]4 | [F,C]2 [F,A,]2 [F,C]2 [F,C]2 | [B,,B,][B,,B,][B,,B,][B,,F,] [B,,B,]4 | %20
 [B,,B,][B,,B,][B,,F,][B,,F,] [B,,B,]2 [B,,D]2 | [E,E]2 [E,C]2 [E,C]4 | %22
 [F,B,]2 [F,C]2 [F,B,]2 [F,A,]2 | [B,,B,]6 z2 |] %24

